X: 9
T: Song of the thunders
N: Derived from ojibwa09.krn
C: Chippewa Songs ~ 1910
O: Red Wing, Minnesota, U.S.A
N: Chippewa Music by Frances Densmore, 1910
Z: transcribed to **kern format by Paul von Hippel and Daniel T. Shanahan
L: 1/8
M: 2/4
Q: 1/4=108
K: Bb clef=bass
%%linebreak <none>
F FF2- | 
F2D2 | 
F D F/ D/ C/ B,/- | 
[M:3/4]B,> B,B,3B, | 
B,6 | 
[M:2/4]F FF2- | 
F2D2 | 
F D (3F D C | 
[M:3/4]B,> B,B,3B, | 
B,6 | 
F2F D F D | 
[M:2/4]B,2B, B, | 
(3G, B, B, (3B, B, G, | 
F,2F, F, | 
[M:3/4]F,6 | 
[M:2/4]B, B, B, G,3// B,// | 
F,2F,3/ B,/ | 
F,2D,2 | 
F,4 | 
D,2F,/ D,3/ | 
B,,> B,,B,,2 | 
B,,4 |]  



